src/img/icons/pata solucao.svg

<svg width="27" height="26" viewBox="0 0 27 26" fill="none" xmlns="http://www.w3.org/2000/svg">
<path fill-rule="evenodd" clip-rule="evenodd" d="M8.21735 22.4738C8.75492 23.8026 8.63428 25.0769 7.44738 25.7335C5.79783 26.6461 4.14354 25.0055 3.56933 23.99C2.7341 22.5128 2.37782 19.8483 2.72707 17.0529C3.29466 12.5096 6.56841 8.24794 11.0906 7.27086C16.4292 6.11737 21.6681 8.78875 22.4631 12.6156C22.8214 14.3614 22.0996 16.8172 20.8589 18.1086C19.5106 19.512 17.0248 20.544 14.7405 20.6829C13.8385 20.7372 12.0471 20.2568 11.7364 18.4316C11.4718 16.8763 12.8811 15.5336 14.7509 15.6241C16.7217 15.7195 18.8863 15.0478 18.1324 13.0977C17.2451 10.8027 13.1425 10.6216 10.6469 11.8285C8.55929 12.838 7.33621 14.8476 7.19503 16.9546C7.05336 19.0683 7.31201 20.2357 8.21735 22.4738Z" fill="#FFB477"/>
<path fill-rule="evenodd" clip-rule="evenodd" d="M11.8139 4.63142C10.8259 4.88627 9.9686 4.17576 9.63613 3.13226C9.29188 2.05403 9.99566 0.957214 10.798 0.665155C12.2516 0.136125 14.1588 0.196732 15.4585 0.662554C16.4123 1.00437 16.9102 1.92797 16.6994 3.01985C16.4885 4.11173 15.7115 4.71851 14.7227 4.50669C13.2949 4.20087 11.8139 4.63142 11.8139 4.63142Z" fill="#FFB477"/>
<path fill-rule="evenodd" clip-rule="evenodd" d="M6.06486 6.70798C4.5172 7.5288 3.05109 9.31024 2.08341 8.57503C1.11572 7.83982 0.941607 4.42355 4.03011 3.02818C5.13715 2.52799 6.60574 2.9307 7.18392 3.9934C7.76209 5.0561 7.1367 6.13954 6.06486 6.70798Z" fill="#FFB477"/>
<path fill-rule="evenodd" clip-rule="evenodd" d="M20.3833 6.08565C21.8778 6.99895 23.2871 8.88717 24.2977 8.2123C25.3083 7.53743 25.7394 4.09557 22.7422 2.51514C21.6692 1.94848 20.1286 2.30425 19.4868 3.32965C18.845 4.35504 19.3483 5.45315 20.3833 6.08565Z" fill="#FFB477"/>
</svg>

<svg xmlns="http://www.w3.org/2000/svg" width="27" height="26" fill="none" viewBox="0 0 27 26"><path fill="#ffb477" fill-rule="evenodd" d="M8.217 22.474c.538 1.329.417 2.603-.77 3.26-1.65.912-3.303-.729-3.878-1.744-.835-1.477-1.191-4.142-.842-6.937.568-4.543 3.841-8.805 8.364-9.782 5.338-1.154 10.577 1.518 11.372 5.345.358 1.745-.363 4.201-1.604 5.493-1.348 1.403-3.834 2.435-6.119 2.574-.902.054-2.693-.426-3.004-2.251-.264-1.556 1.145-2.898 3.015-2.808 1.97.095 4.135-.576 3.381-2.526-.887-2.295-4.99-2.476-7.485-1.27a6.13 6.13 0 0 0-3.452 5.127c-.142 2.113.117 3.28 1.022 5.519" clip-rule="evenodd"/><path fill="#ffb477" fill-rule="evenodd" d="M11.814 4.631c-.988.255-1.845-.455-2.178-1.499-.344-1.078.36-2.175 1.162-2.467 1.454-.529 3.36-.468 4.66-.002.954.341 1.452 1.265 1.241 2.357s-.988 1.699-1.976 1.487c-1.428-.306-2.91.124-2.91.124" clip-rule="evenodd"/><path fill="#ffb477" fill-rule="evenodd" d="M6.065 6.708c-1.548.82-3.014 2.602-3.982 1.867C1.116 7.84.942 4.424 4.03 3.028c1.107-.5 2.576-.097 3.154.965s-.047 2.147-1.12 2.715" clip-rule="evenodd"/><path fill="#ffb477" fill-rule="evenodd" d="M20.383 6.086c1.495.913 2.904 2.801 3.915 2.126 1.01-.675 1.441-4.116-1.556-5.697-1.073-.567-2.613-.21-3.255.815s-.139 2.123.896 2.756" clip-rule="evenodd"/></svg>
